dist/icons/svgs/heart-outline.svg

<svg xmlns="http://www.w3.org/2000/svg" width="24" height="24" fill="currentcolor" class="icon-heart-outline" viewBox="0 0 24 24">
  <path d="M11.5312 5.28122L11.9609 5.74997L12.4297 5.32029C13.7188 4.03122 15.5547 3.44529 17.3125 3.75779C20.0078 4.18747 22 6.53122 22 9.2656V9.46091C22 11.1015 21.2969 12.664 20.125 13.7578L13.0547 20.3593C12.7812 20.6328 12.3906 20.75 12 20.75C11.5703 20.75 11.1797 20.6328 10.9062 20.3593L3.83594 13.7578C2.66406 12.664 2 11.1015 2 9.46091V9.2656C2 6.53122 3.95312 4.18747 6.64844 3.75779C8.40625 3.44529 10.2422 4.03122 11.5312 5.28122C11.5312 5.32029 11.4922 5.28122 11.5312 5.28122ZM11.9609 8.40622L10.2031 6.60935C9.34375 5.78904 8.13281 5.39841 6.96094 5.59372C5.16406 5.90622 3.875 7.42966 3.875 9.2656V9.46091C3.875 10.5937 4.30469 11.6484 5.125 12.3906L12 18.7968L18.8359 12.3906C19.6562 11.6484 20.125 10.5937 20.125 9.46091V9.2656C20.125 7.42966 18.7969 5.90622 17 5.59372C15.8281 5.39841 14.6172 5.78904 13.7578 6.60935L11.9609 8.40622Z"/>
</svg>

<svg xmlns="http://www.w3.org/2000/svg" width="24" height="24" fill="currentColor" class="icon-heart-outline" viewBox="0 0 24 24">
  <path d="m11.531 5.281.43.469.469-.43c1.289-1.289 3.125-1.875 4.883-1.562A5.58 5.58 0 0 1 22 9.266v.195a5.9 5.9 0 0 1-1.875 4.297l-7.07 6.601c-.274.274-.664.391-1.055.391-.43 0-.82-.117-1.094-.39l-7.07-6.602C2.664 12.664 2 11.102 2 9.46v-.195C2 6.53 3.953 4.188 6.648 3.758c1.758-.313 3.594.273 4.883 1.523 0 .04-.039 0 0 0m.43 3.125L10.203 6.61a3.82 3.82 0 0 0-3.242-1.015 3.7 3.7 0 0 0-3.086 3.672v.195c0 1.133.43 2.187 1.25 2.93L12 18.797l6.836-6.406a3.93 3.93 0 0 0 1.289-2.93v-.195c0-1.836-1.328-3.36-3.125-3.672a3.82 3.82 0 0 0-3.242 1.015z"/>
</svg>
